X: 1733
T: Mrs Gibbons' Stockyards Set Tune
B: australian traditional tunes wiki
M:6/8
L:1/8
R: Jig
Q: 3/8=100
K:D
V:1 
|:(c|"D"d2)D D>ED|dcB AFA|"A"BcB "D"AFD|"A"E2E E2c|
|"D"d2D DED|dcB AFA|"A"BcB "D"AFD|"A"E>GE "D"D2:|
|:E|"D"D>FA B2c|"D"d3 "A"e2c|"D"d3 "A"e3|"D"fdd d2e|
|"D"fdf "A"e>ce|"D"d>cB AFA|"A"BcB "D"AFD|"A"E>GE "D"D2:|
% abcbook-tune_id 6342d53a1178e739e20a27c7


% abcbook-boost 0
% abcbook-tablature 
% abcbook-transpose 
% abcbook-lastupdated 1665324380674
% abcbook-soundfonts 
% abcbook-repeats 1
% NFF Book 2018

